!!!OTL: Shengchanle
!!!ARE: Asia, China,ÿHebei Jixian
!! IV, 27
!!!SCT: C1913
!!!YEM: Copyright 1995, estate of Helmut Schaffrath.
**kern
*ICvox
*Ivox
*M2/4
*k[f#c#g#]
*A:
{8.cc#
16ee
8.ff#
16ee
=1
8.cc#
16b
4a
=2
8cc#
8ee
8.ff#
16ee
=3
8.cc#
16b
4a}
=4
{8r
8ee
8cc#
8ee
=5
8.cc#
16b
8a
8f#
=6
8cc#
16b
16cc#
8g#
8f#
=7
2e}
=8
{8a
4e
16e
16f#
=9
8a
8f#
4a
=10
8.cc#
16ee
8cc#
8b
=11
8g#
8f#
4e}
=12
{8ee
8ee
8cc#
16cc#
16b
=13
8g#
8f#
4e
=14
16cc#
16ee
16cc#
16ee
8cc#
8b
=15
8g#
8f#
4e}
=16
{8r
8ee
8cc#
8ee
=17
16cc#
16ee
16cc#
16b
4a
=18
8cc#
16b
16cc#
8g#
8f#
=19
8.e
16f#
8g#
8f#
=20
2e}
==
!!!AGN: Xiaodiao
!!!AMT: simple duple
!!!AIN: vox
!!!EED: Helmut Schaffrath
!!!EEV: 1.0
*-
